Newaita-dark/.DP/16/skype-status-hidden-notification.svg

<svg xmlns="http://www.w3.org/2000/svg" xmlns:xlink="http://www.w3.org/1999/xlink" width="16px" height="16px" viewBox="0 0 16 16" version="1.1">
<g id="surface1">
<path style=" stroke:none;fill-rule:nonzero;fill:rgb(93.333334%,93.333334%,93.333334%);fill-opacity:1;" d="M 5.363281 2.101562 C 3.796875 2.101562 2.535156 3.363281 2.535156 4.929688 C 2.535156 5.402344 2.652344 5.847656 2.855469 6.238281 C 2.648438 6.808594 2.535156 7.425781 2.535156 8.070312 C 2.535156 11.03125 4.917969 13.414062 7.878906 13.414062 C 8.109375 13.414062 8.335938 13.398438 8.558594 13.371094 C 9.050781 13.789062 9.691406 14.042969 10.390625 14.042969 C 11.957031 14.042969 13.21875 12.78125 13.21875 11.214844 C 13.21875 10.738281 13.105469 10.292969 12.898438 9.902344 C 13.105469 9.332031 13.21875 8.714844 13.21875 8.070312 C 13.21875 7.199219 13.011719 6.378906 12.648438 5.65625 C 12.46875 5.714844 12.273438 5.746094 12.074219 5.746094 C 11.066406 5.746094 10.253906 4.9375 10.253906 3.929688 C 10.253906 3.71875 10.289062 3.519531 10.351562 3.332031 C 9.613281 2.945312 8.773438 2.726562 7.878906 2.726562 C 7.644531 2.726562 7.417969 2.742188 7.195312 2.769531 C 6.703125 2.351562 6.0625 2.101562 5.363281 2.101562 Z M 6.535156 5.996094 C 6.703125 5.996094 6.875 6.0625 7.003906 6.191406 L 7.9375 7.128906 L 8.875 6.191406 C 9.132812 5.933594 9.550781 5.933594 9.808594 6.191406 C 10.070312 6.453125 10.070312 6.867188 9.808594 7.128906 L 8.875 8.0625 L 9.808594 9 C 10.070312 9.257812 10.070312 9.675781 9.808594 9.933594 C 9.550781 10.195312 9.132812 10.195312 8.875 9.933594 L 7.9375 9 L 7.003906 9.933594 C 6.742188 10.195312 6.328125 10.195312 6.066406 9.933594 C 5.808594 9.675781 5.808594 9.257812 6.066406 9 L 7.003906 8.0625 L 6.066406 7.128906 C 5.808594 6.867188 5.808594 6.453125 6.066406 6.191406 C 6.195312 6.0625 6.367188 5.996094 6.535156 5.996094 Z M 6.535156 5.996094 "/>
<path style=" stroke:none;fill-rule:nonzero;fill:rgb(93.333334%,93.333334%,93.333334%);fill-opacity:1;" d="M 12.074219 2.769531 C 12.710938 2.769531 13.230469 3.289062 13.230469 3.929688 C 13.230469 4.566406 12.710938 5.085938 12.074219 5.085938 C 11.433594 5.085938 10.914062 4.566406 10.914062 3.929688 C 10.914062 3.289062 11.433594 2.769531 12.074219 2.769531 Z M 12.074219 2.769531 "/>
</g>
</svg>

<svg xmlns="http://www.w3.org/2000/svg" width="16pt" height="16pt" viewBox="0 0 16 16"><g fill="#bdbdbd"><path d="M5.363 2.102a2.83 2.83 0 0 0-2.508 4.137 5.36 5.36 0 0 0-.32 1.831 5.331 5.331 0 0 0 6.024 5.301 2.823 2.823 0 0 0 1.832.672 2.822 2.822 0 0 0 2.828-2.828c0-.477-.114-.922-.32-1.313a5.36 5.36 0 0 0 .32-1.832c0-.87-.207-1.691-.57-2.414a1.86 1.86 0 0 1-.575.09 1.814 1.814 0 0 1-1.82-1.816c0-.211.035-.41.098-.598a5.31 5.31 0 0 0-2.473-.605c-.234 0-.461.015-.684.043a2.82 2.82 0 0 0-1.832-.668zm1.172 3.894c.168 0 .34.066.469.195l.934.938.937-.938a.66.66 0 0 1 .934 0 .658.658 0 0 1 0 .938l-.934.934.934.937a.653.653 0 0 1 0 .934.653.653 0 0 1-.934 0L7.937 9l-.933.934a.658.658 0 0 1-.938 0 .66.66 0 0 1 0-.934l.938-.938-.938-.933a.665.665 0 0 1 .47-1.133zm0 0"/><path d="M12.074 2.77a1.159 1.159 0 1 1-1.16 1.16c0-.64.52-1.16 1.16-1.16zm0 0"/></g></svg>
